db/projects/loopring/asset-lrc-logo-full.svg

<?xml version="1.0" encoding="UTF-8"?>
<svg width="423px" height="127px" viewBox="0 0 423 127" version="1.1" xmlns="http://www.w3.org/2000/svg" xmlns:xlink="http://www.w3.org/1999/xlink">
    <!-- Generator: Sketch 51.3 (57544) - http://www.bohemiancoding.com/sketch -->
    <title>logo-blue</title>
    <desc>Created with Sketch.</desc>
    <defs>
        <path d="M168.0048,62.3703 L168.0048,126.7463 L192.5608,126.7463 L192.5608,117.9183 L178.3968,117.9183 L178.3968,62.3703 L168.0048,62.3703 Z M422.8528,85.3619 L422.8528,74.6949 C422.8528,66.8769 417.6108,61.8179 408.1378,61.8179 C398.6658,61.8179 393.4238,66.9679 393.4238,74.6949 L393.4238,114.4229 C393.4238,122.1479 398.6658,127.2999 408.1378,127.2999 C417.6108,127.2999 422.8528,122.2409 422.8528,114.4229 L422.8528,94.6509 L408.3218,94.6509 L408.3218,103.4789 L412.7368,103.4789 L412.7368,114.4229 C412.7368,116.9069 410.8058,118.1939 408.1378,118.1939 C405.2868,118.1939 403.9088,116.9069 403.9088,114.4229 L403.9088,74.6949 C403.1718,69.6359 413.0118,69.8199 412.7368,74.6949 L412.7368,85.3619 L422.8528,85.3619 Z M377.053,81.3151 C377.053,86.2821 377.146,91.7071 377.328,97.5921 L367.764,62.3701 L356.453,62.3701 L356.453,126.7471 L365.925,126.7471 L365.925,107.8021 C365.925,102.5601 365.833,96.9491 365.65,90.8791 L375.49,126.7471 L386.527,126.7471 L386.527,62.3701 L377.053,62.3701 L377.053,81.3151 Z M338.519,126.747 L348.911,126.747 L348.911,62.371 L338.519,62.371 L338.519,126.747 Z M321.3489,89.4996 C321.3489,91.9836 320.0619,93.2706 317.5789,93.2706 L312.8889,93.2706 L312.8889,71.1986 L317.5789,71.1986 C320.0619,71.1986 321.3489,72.4866 321.3489,74.9696 L321.3489,89.4996 Z M331.7429,89.4996 L331.7429,74.9696 C331.7429,67.1516 326.8689,62.3706 317.5789,62.3706 L302.4969,62.3706 L302.4969,126.7466 L312.8889,126.7466 L312.8889,102.1006 L316.1099,102.1006 L322.6789,126.7466 L333.0719,126.7466 L326.0059,100.2426 C329.7879,98.1676 331.7429,94.4426 331.7429,89.4996 Z M286.9212,89.4996 C286.9212,91.9836 285.6342,93.2706 283.1512,93.2706 L278.4612,93.2706 L278.4612,71.1986 L283.1512,71.1986 C285.6342,71.1986 286.9212,72.4866 286.9212,74.9696 L286.9212,89.4996 Z M283.1512,62.3706 L268.0692,62.3706 L268.0692,126.7466 L278.4612,126.7466 L278.4612,102.1006 L283.1512,102.1006 C292.4412,102.1006 297.3152,97.3166 297.3152,89.4996 L297.3152,74.9696 C297.3152,67.1516 292.4412,62.3706 283.1512,62.3706 Z M250.7776,114.4225 C251.3286,119.3905 241.5796,119.3905 242.2246,114.4225 L242.2246,74.6945 C241.5796,69.7275 251.3286,69.7275 250.7776,74.6945 L250.7776,114.4225 Z M246.4536,61.8185 C236.9816,61.8185 231.7396,66.9675 231.7396,74.6945 L231.7396,114.4225 C231.7396,122.1485 236.9816,127.2995 246.4536,127.2995 C255.9266,127.2995 261.1696,122.2405 261.1696,114.4225 L261.1696,74.6945 C261.1696,66.8765 255.9266,61.8185 246.4536,61.8185 Z M215.1849,114.4225 C215.7359,119.3905 205.9879,119.3905 206.6329,114.4225 L206.6329,74.6945 C205.9879,69.7275 215.7359,69.7275 215.1849,74.6945 L215.1849,114.4225 Z M210.8619,61.8185 C201.3899,61.8185 196.1479,66.9675 196.1479,74.6945 L196.1479,114.4225 C196.1479,122.1485 201.3899,127.2995 210.8619,127.2995 C220.3339,127.2995 225.5779,122.2405 225.5779,114.4225 L225.5779,74.6945 C225.5779,66.8765 220.3339,61.8185 210.8619,61.8185 Z" id="path-1"></path>
    </defs>
    <g id="Page-1" stroke="none" stroke-width="1" fill="none" fill-rule="evenodd">
        <g id="logo-blue" transform="translate(0.000000, -1.000000)">
            <mask id="mask-2" fill="white">
                <use xlink:href="#path-1"></use>
            </mask>
            <use id="Fill-17" fill="#1C60FF" xlink:href="#path-1"></use>
            <path d="M91.7253,62.3127 L158.4793,62.3127 L158.4793,62.7157 L54.2183,126.3137 L105.9603,84.9497 L91.7253,62.3127 Z M52.7922,0.9993 L52.7922,127.1533 L0.0002,84.9493 L52.7922,0.9993 Z" id="Path" fill="#1C60FF"></path>
        </g>
    </g>
</svg>

<svg width="423" height="127" xmlns="http://www.w3.org/2000/svg" xmlns:xlink="http://www.w3.org/1999/xlink"><defs><path d="M168.005 62.37v64.376h24.556v-8.828h-14.164V62.37h-10.392zm254.848 22.992V74.695c0-7.818-5.242-12.877-14.715-12.877-9.472 0-14.714 5.15-14.714 12.877v39.728c0 7.725 5.242 12.877 14.714 12.877 9.473 0 14.715-5.06 14.715-12.877V94.65h-14.531v8.828h4.415v10.944c0 2.484-1.931 3.77-4.6 3.77-2.85 0-4.228-1.286-4.228-3.77V74.695c-.737-5.06 9.103-4.875 8.828 0v10.667h10.116zm-45.8-4.047c0 4.967.093 10.392.275 16.277l-9.564-35.222h-11.311v64.377h9.472v-18.945c0-5.242-.092-10.853-.275-16.923l9.84 35.868h11.037V62.37h-9.474v18.945zm-38.534 45.432h10.392V62.371h-10.392v64.376zM321.349 89.5c0 2.484-1.287 3.77-3.77 3.77h-4.69V71.2h4.69c2.483 0 3.77 1.288 3.77 3.77V89.5zm10.394 0V74.97c0-7.818-4.874-12.6-14.164-12.6h-15.082v64.377h10.392V102.1h3.22l6.57 24.646h10.393l-7.066-26.504c3.782-2.075 5.737-5.8 5.737-10.743zm-44.822 0c0 2.484-1.287 3.77-3.77 3.77h-4.69V71.2h4.69c2.483 0 3.77 1.288 3.77 3.77V89.5zm-3.77-27.13H268.07v64.377h10.392V102.1h4.69c9.29 0 14.164-4.784 14.164-12.601V74.97c0-7.818-4.874-12.6-14.164-12.6zm-32.373 52.053c.55 4.968-9.198 4.968-8.553 0V74.695c-.645-4.967 9.104-4.967 8.553 0v39.728zm-4.324-52.605c-9.472 0-14.714 5.15-14.714 12.877v39.728c0 7.725 5.242 12.876 14.714 12.876 9.473 0 14.716-5.059 14.716-12.877V74.696c0-7.819-5.243-12.876-14.716-12.876zm-31.27 52.605c.552 4.968-9.196 4.968-8.551 0V74.695c-.645-4.967 9.103-4.967 8.552 0v39.728zm-4.322-52.605c-9.472 0-14.714 5.15-14.714 12.877v39.728c0 7.725 5.242 12.876 14.714 12.876 9.472 0 14.716-5.059 14.716-12.877V74.696c0-7.819-5.244-12.876-14.716-12.876z" id="a"/></defs><g transform="translate(0 -1)" fill="#1C60FF" fill-rule="evenodd"><use xlink:href="#a"/><path d="M91.725 62.313h66.754v.403L54.22 126.314 105.96 84.95 91.725 62.313zM52.792.999v126.154L0 84.95 52.792 1z"/></g></svg>
